static/client-logos/bell-logo.svg

<svg height="57" viewBox="0 0 45 57" width="45" xmlns="http://www.w3.org/2000/svg"><g fill="none" fill-rule="evenodd"><path d="m45 0v33.4137931c-2.3889501 6.4563078-11.0904586 15.8606633-22.6490385 23.5862069-10.5593665-7.7255436-19.96266698-17.1298991-22.3509615-23.5862069v-33.4137931z" fill="#fff"/><path d="m1.24395848 15.6338364h42.19281822v-14.39245709h-42.19281822zm40.73731102 16.7664951s-.6577431 1.1475529-1.542872 1.1475529h-10.2899045c-2.691283 0-3.7611712-1.0280986-4.9574876-1.8704822l-1.7451834-1.270703c-.267637-.2107939-.3689907-.499728-.3689907-.8407996v-2.8304721c0-2.2565637 2.2976137-2.8889454 3.2206183-3.0912916l15.6838199-2.9851687s-.3600167 1.2448322-1.1911696 1.6930827l-7.2991795 3.6490968c-1.0213229.5077796-1.9894616.7993536-3.7380762.7993536h-3.2724829c-1.0102374 0-1.3994196 0-1.3982319.3294562zm-20.3778935-2.8344319c0 .3410716-.1014856.6300057-.3683308.8407996l-1.7455794 1.270703c-1.1965803.8423836-2.2666005 1.8704822-4.9573555 1.8704822h-10.29016847c-.88539289 0-1.54339989-1.1475529-1.54339989-1.1475529l16.89966796-5.270375c.0007918-.3294562-.3870707-.3294562-1.397836-.3294562h-3.2731427c-1.7486147 0-2.7170173-.291574-3.7376804-.7993536l-7.29931147-3.6490968c-.83102087-.4482505-1.19169739-1.6930827-1.19169739-1.6930827l15.68408376 2.9851687c.9234006.2023462 3.2207503.8347279 3.2207503 3.0912916zm4.3126776-12.3803457-3.3040239 1.8892253c.5010936.6202382 1.6634935 2.1381654 1.9521139 2.646737.0989781.1748916.1745975.3583628.1970325.5316704.0537122.4091804-.2023114.7544758-1.2211269.7544758h-2.3993632c-1.0190795 0-1.2751031-.3452954-1.2217868-.7544758.0221711-.1733076.0980544-.3567788.1970326-.5316704.2887524-.5085716 1.4510202-2.0264988 1.9519818-2.646737l-3.303364-1.8892253h-17.52045915v15.8886053c2.94440316 7.9828447 13.97915155 17.5426178 20.86117095 22.5371261-.2598507-.7848344-.6997098-2.4653777-.8141286-5.0961434-.1119113-2.5424619-.1328947-8.3876693-.1328947-11.8596307 0-.6438651.0056747-1.1509847-.5842353-1.6598203-.2207873-.1909948-.2020474-.4436307-.2020474-.4436307l.9036048-.6280258c.1241847-.0861919.1255044-.2693991.0022435-.3567789l-1.3170697-.8187567c-.4209872-.2792986-.4315449-.7245132-.4315449-.7245132l2.8105846-2.4498024 2.8111126 2.4498024s-.0098979.4452146-.431281.7245132c-.3712342.2444523-.9817317.5803761-1.3173337.8187567-.1231289.0873798-.1214133.270587.0025074.3567789l.9025492.6280258s.0201915.2526359-.2008598.4436307c-.5907018.5088356-.5841033 1.0159552-.5841033 1.6598203 0 3.4719614-.0215112 9.3171688-.1331586 11.8596307-.1150787 2.6307657-.5545418 4.311309-.8143926 5.0961434 6.8817555-4.9945083 17.9172957-14.5542814 20.8619628-22.5371261v-15.8886053zm-14.8056325-10.38817851.0014516-.48705662c0-.36258659-.6528601-.770579-1.47767833-.770579h-1.41393642v1.88130568h1.68685228c.50307317 0 .95151037-.18413116 1.20331087-.62367006zm-1.1205651 2.20746203h-1.76959805v1.97805708h1.7112669c.92973515 0 1.33066275-.5104195 1.33066275-.770447v-.55648533c-.2240866-.40970834-.7131708-.65112475-1.2723316-.65112475zm3.5406478 1.54036608c-.0011878 1.3219165-1.4252859 2.3056653-2.7344375 2.3713981h-5.16798113v-4.7612754c0-.67752347.2368878-.88673343.53870529-1.18530309l1.43571162-1.43028334h-1.58853394c-.52286878 0-.67859446-.15020879-.89700633-.43439115l-.95375383-1.4956202h6.53440802c1.3202371 0 2.6813852.96460969 2.6813852 2.27504278v1.12630193c-.2235588.3937371-.6458657.86403053-1.0508845 1.09198358.4050188.19719854.8947629.56110507 1.2023871 1.10716285zm9.0060914-5.00546373h-4.7436947v1.88130568h4.1035037v1.73518871h-4.1035037v1.82666034h4.7436947v1.9337071h-7.2071958v-7.96383766c0-.23600467.0869688-.4643537.2478413-.6373974.2017836-.21792154.481166-.48058893.7751972-.70563812h6.1841573zm4.3636184-1.93001135v7.37316608h4.5925879v1.9337071h-7.0645352v-7.96383766c0-.23600467.0877607-.4643537.2482373-.6373974.2016516-.21792154.480902-.48058893.7749332-.70563812zm8.8431073 0v7.37316608h4.5931158v1.9337071h-7.0649311v-7.96383766c0-.23600467.0874967-.4643537.2470495-.6373974.2028393-.21792154.481166-.48058893.776253-.70563812z" fill="#bc0134"/></g></svg>

<?xml version="1.0" encoding="UTF-8"?>
<svg width="45px" height="57px" viewBox="0 0 45 57" version="1.1" xmlns="http://www.w3.org/2000/svg" xmlns:xlink="http://www.w3.org/1999/xlink">
    <!-- Generator: Sketch 50.2 (55047) - http://www.bohemiancoding.com/sketch -->
    <title>bell-logo</title>
    <desc>Created with Sketch.</desc>
    <defs></defs>
    <g id="Page-1" stroke="none" stroke-width="1" fill="none" fill-rule="evenodd">
        <g id="bell-logo">
            <path d="M45,0 L45,33.4137931 C42.6110499,39.8701009 33.9095414,49.2744564 22.3509615,57 C11.791595,49.2744564 2.38829452,39.8701009 3.55271368e-15,33.4137931 L3.55271368e-15,0 L45,0 Z" id="Shape" fill="#FFFFFF"></path>
            <path d="M1.24395848,15.6338364 L43.4367767,15.6338364 L43.4367767,1.24137931 L1.24395848,1.24137931 L1.24395848,15.6338364 Z M41.9812695,32.4003315 C41.9812695,32.4003315 41.3235264,33.5478844 40.4383975,33.5478844 L30.148493,33.5478844 C27.45721,33.5478844 26.3873218,32.5197858 25.1910054,31.6774022 L23.445822,30.4066992 C23.178185,30.1959053 23.0768313,29.9069712 23.0768313,29.5658996 L23.0768313,26.7354275 C23.0768313,24.4788638 25.374445,23.8464821 26.2974496,23.6441359 L41.9812695,20.6589672 C41.9812695,20.6589672 41.6212528,21.9037994 40.7900999,22.3520499 L33.4909204,26.0011467 C32.4695975,26.5089263 31.5014588,26.8005003 29.7528442,26.8005003 L26.4803613,26.8005003 C25.4701239,26.8005003 25.0809417,26.8005003 25.0821294,27.1299565 L41.9812695,32.4003315 Z M21.603376,29.5658996 C21.603376,29.9069712 21.5018904,30.1959053 21.2350452,30.4066992 L19.4894658,31.6774022 C18.2928855,32.5197858 17.2228653,33.5478844 14.5321103,33.5478844 L4.24194183,33.5478844 C3.35654894,33.5478844 2.69854194,32.4003315 2.69854194,32.4003315 L19.5982099,27.1299565 C19.5990017,26.8005003 19.2111392,26.8005003 18.2003739,26.8005003 L14.9272312,26.8005003 C13.1786165,26.8005003 12.2102139,26.5089263 11.1895508,26.0011467 L3.89023933,22.3520499 C3.05921846,21.9037994 2.69854194,20.6589672 2.69854194,20.6589672 L18.3826257,23.6441359 C19.3060263,23.8464821 21.603376,24.4788638 21.603376,26.7354275 L21.603376,29.5658996 Z M25.9160536,17.1855539 L22.6120297,19.0747792 C23.1131233,19.6950174 24.2755232,21.2129446 24.5641436,21.7215162 C24.6631217,21.8964078 24.7387411,22.079879 24.7611761,22.2531866 C24.8148883,22.662367 24.5588647,23.0076624 23.5400492,23.0076624 L21.140686,23.0076624 C20.1216065,23.0076624 19.8655829,22.662367 19.9188992,22.2531866 C19.9410703,22.079879 20.0169536,21.8964078 20.1159318,21.7215162 C20.4046842,21.2129446 21.566952,19.6950174 22.0679136,19.0747792 L18.7645496,17.1855539 L1.24409045,17.1855539 L1.24409045,33.0741592 C4.18849361,41.0570039 15.223242,50.616777 22.1052614,55.6112853 C21.8454107,54.8264509 21.4055516,53.1459076 21.2911328,50.5151419 C21.1792215,47.97268 21.1582381,42.1274726 21.1582381,38.6555112 C21.1582381,38.0116461 21.1639128,37.5045265 20.5740028,36.9956909 C20.3532155,36.8046961 20.3719554,36.5520602 20.3719554,36.5520602 L21.2755602,35.9240344 C21.3997449,35.8378425 21.4010646,35.6546353 21.2778037,35.5672555 L19.960734,34.7484988 C19.5397468,34.4692002 19.5291891,34.0239856 19.5291891,34.0239856 L22.3397737,31.5741832 L25.1508863,34.0239856 C25.1508863,34.0239856 25.1409884,34.4692002 24.7196053,34.7484988 C24.3483711,34.9929511 23.7378736,35.3288749 23.4022716,35.5672555 C23.2791427,35.6546353 23.2808583,35.8378425 23.404779,35.9240344 L24.3073282,36.5520602 C24.3073282,36.5520602 24.3275197,36.8046961 24.1064684,36.9956909 C23.5157666,37.5045265 23.5223651,38.0116461 23.5223651,38.6555112 C23.5223651,42.1274726 23.5008539,47.97268 23.3892065,50.5151419 C23.2741278,53.1459076 22.8346647,54.8264509 22.5748139,55.6112853 C29.4565694,50.616777 40.4921096,41.0570039 43.4367767,33.0741592 L43.4367767,17.1855539 L25.9160536,17.1855539 Z M11.1104211,6.79737539 L11.1118727,6.31031877 C11.1118727,5.94773218 10.4590126,5.53973977 9.63419437,5.53973977 L8.22025795,5.53973977 L8.22025795,7.42104545 L9.90711023,7.42104545 C10.4101834,7.42104545 10.8586206,7.23691429 11.1104211,6.79737539 Z M9.989856,9.00483742 L8.22025795,9.00483742 L8.22025795,10.9828945 L9.93152485,10.9828945 C10.86126,10.9828945 11.2621876,10.472475 11.2621876,10.2124475 L11.2621876,9.65596217 C11.038101,9.24625383 10.5490168,9.00483742 9.989856,9.00483742 Z M13.5305038,10.5452035 C13.529316,11.86712 12.1052179,12.8508688 10.7960663,12.9166016 L5.62808517,12.9166016 L5.62808517,8.1553262 C5.62808517,7.47780273 5.86497297,7.26859277 6.16679046,6.97002311 L7.60250208,5.53973977 L6.01396814,5.53973977 C5.49109936,5.53973977 5.33537368,5.38953098 5.11696181,5.10534862 L4.16320798,3.60972842 L10.697616,3.60972842 C12.0178531,3.60972842 13.3790012,4.57433811 13.3790012,5.8847712 L13.3790012,7.01107313 C13.1554424,7.40481023 12.7331355,7.87510366 12.3281167,8.10305671 C12.7331355,8.30025525 13.2228796,8.66416178 13.5305038,9.21021956 L13.5305038,10.5452035 Z M22.5365952,5.53973977 L17.7929005,5.53973977 L17.7929005,7.42104545 L21.8964042,7.42104545 L21.8964042,9.15623416 L17.7929005,9.15623416 L17.7929005,10.9828945 L22.5365952,10.9828945 L22.5365952,12.9166016 L15.3293994,12.9166016 L15.3293994,4.95276394 C15.3293994,4.71675927 15.4163682,4.48841024 15.5772407,4.31536654 C15.7790243,4.097445 16.0584067,3.83477761 16.3524379,3.60972842 L22.5365952,3.60972842 L22.5365952,5.53973977 Z M26.9002136,3.60972842 L26.9002136,10.9828945 L31.4928015,10.9828945 L31.4928015,12.9166016 L24.4282663,12.9166016 L24.4282663,4.95276394 C24.4282663,4.71675927 24.516027,4.48841024 24.6765036,4.31536654 C24.8781552,4.097445 25.1574056,3.83477761 25.4514368,3.60972842 L26.9002136,3.60972842 Z M35.7433209,3.60972842 L35.7433209,10.9828945 L40.3364367,10.9828945 L40.3364367,12.9166016 L33.2715056,12.9166016 L33.2715056,4.95276394 C33.2715056,4.71675927 33.3590023,4.48841024 33.5185551,4.31536654 C33.7213944,4.097445 33.9997211,3.83477761 34.2948081,3.60972842 L35.7433209,3.60972842 Z" id="Shape" fill="#BC0134"></path>
        </g>
    </g>
</svg>
